svgs/sharp-light/sensor-cloud.svg

<svg xmlns="http://www.w3.org/2000/svg" viewBox="0 0 640 512"><!--! Font Awesome Pro 6.6.0 by @fontawesome - https://fontawesome.com License - https://fontawesome.com/license (Commercial License) Copyright 2024 Fonticons, Inc. --><path d="M32 64l384 0 0 161c11.2 1.4 21.9 4.2 32 8.3L448 64l0-32-32 0L32 32 0 32 0 64 0 448l0 32 32 0 192 0 0-32L32 448 32 64zm96 80l0-16-32 0 0 16 0 128 0 16 32 0 0-16 0-128zm64 0l0-16-32 0 0 16 0 128 0 16 32 0 0-16 0-128zM336 352c0-35.3 28.7-64 64-64c24.4 0 45.7 13.7 56.5 33.9l10.7 20 15.3-16.7C489.8 317 500.3 312 512 312c22.1 0 40 17.9 40 40c0 .4 0 .9 0 1.3l-.4 13.2 12.9 2.9c24.9 5.7 43.6 28 43.6 54.6l0 56-56 0-24 0-160 0-24 0-56 0 0-56c0-24.4 15.6-45.2 37.4-52.8l11.3-4-.6-11.9c-.1-1.1-.1-2.2-.1-3.3zm64-96c-50.8 0-92.4 39.5-95.8 89.5C275.6 360 256 389.7 256 424l0 72 0 16 16 0 72 0 24 0 160 0 24 0 72 0 16 0 0-16 0-72c0-37.6-23.6-69.7-56.7-82.3c-5-34.9-35-61.7-71.3-61.7c-13.9 0-27 4-38 10.8c-17.6-21.3-44.2-34.8-74-34.8z"/></svg>

<svg xmlns="http://www.w3.org/2000/svg" viewBox="0 0 640 512"><!--! Font Awesome Pro 6.4.0 by @fontawesome - https://fontawesome.com License - https://fontawesome.com/license (Commercial License) Copyright 2023 Fonticons, Inc. --><path d="M32 64H416V225c11.2 1.4 21.9 4.2 32 8.3V64 32H416 32 0V64 448v32H32 224V448H32V64zm96 80V128H96v16V272v16h32V272 144zm64 0V128H160v16V272v16h32V272 144zM336 352c0-35.3 28.7-64 64-64c24.4 0 45.7 13.7 56.5 33.9l10.7 20 15.3-16.7C489.8 317 500.3 312 512 312c22.1 0 40 17.9 40 40c0 .4 0 .9 0 1.3l-.4 13.2 12.9 2.9c24.9 5.7 43.6 28 43.6 54.6v56H552 528 368 344 288V424c0-24.4 15.6-45.2 37.4-52.8l11.3-4-.6-11.9c-.1-1.1-.1-2.2-.1-3.3zm64-96c-50.8 0-92.4 39.5-95.8 89.5C275.6 360 256 389.7 256 424v72 16h16 72 24H528h24 72 16V496 424c0-37.6-23.6-69.7-56.7-82.3c-5-34.9-35-61.7-71.3-61.7c-13.9 0-27 4-38 10.8c-17.6-21.3-44.2-34.8-74-34.8z"/></svg>
